X: 1091
U: T=!/!	% tremolo
M: 6/8
L: 1/8
K: F
c |\
f2z c2z | d2c A2z | AAA A2A | F2G A2c |\
f2z c2z | d2c A2z | D2E F2G | TA3 A2 :|\
c |\
cdc c2A | A2A A2B | BcB B2G | G2G G2c |\
cdc c2A | A2A A2d | c2c c2d | c2A AB :| c |
f3 c3 | A3 c3 | G2A G2^F | G3 z2 |: ^G |\
dBd f2d | dBd F2 :| A |\
f/g/ |\
K: Bb
dcB c2F | dcB c2F | FBd cAF | FBd cAF |\
d2d c2c | B2B F2F | FBd cAF | B3 "^da Capo"z2 :|

